<?xml version="1.0" encoding="UTF-8"?>
<map version="1.10" tiledversion="1.11.2" orientation="orthogonal" renderorder="right-down" width="31" height="21" tilewidth="24" tileheight="24" infinite="0" backgroundcolor="#54769b" nextlayerid="3" nextobjectid="1">
 <editorsettings>
  <chunksize width="24" height="24"/>
  <export target="map1.json" format="json"/>
 </editorsettings>
 <tileset firstgid="1" name="t2" tilewidth="24" tileheight="24" tilecount="64" columns="8">
  <image source="tileset1.png" width="192" height="192"/>
 </tileset>
 <layer id="1" name="Tile Layer 1" width="31" height="21">
  <data encoding="csv">
0,0,0,3,5,5,5,5,53,1,3,5,5,5,53,0,0,11,59,51,0,0,0,0,0,0,0,11,37,37,37,
0,0,0,11,12,7,13,12,17,18,54,31,30,30,51,0,0,19,20,52,0,0,16,0,0,0,0,11,39,38,37,
0,0,0,11,35,36,33,27,26,26,26,27,34,29,51,0,0,0,0,0,0,0,24,0,0,0,0,11,59,12,39,
0,0,0,11,43,44,28,12,51,1,11,12,28,29,51,0,0,0,0,0,3,5,32,5,5,5,5,6,15,7,12,
0,18,18,54,60,12,28,12,50,5,6,12,28,30,51,0,0,0,0,0,11,12,24,59,12,12,14,15,14,15,12,
0,25,26,27,27,27,42,59,7,12,12,12,28,31,51,0,0,0,0,0,11,60,40,35,36,12,59,14,12,12,12,
0,2,0,11,37,38,39,7,59,7,35,36,28,12,51,0,0,0,0,0,11,12,0,43,44,7,12,12,12,12,12,
0,0,0,19,20,21,20,22,23,0,43,44,28,12,17,18,18,18,18,18,54,59,7,59,60,12,59,12,12,12,12,
0,0,0,0,0,0,0,0,11,12,33,27,27,27,26,26,26,26,26,26,26,27,27,27,34,45,45,45,45,33,46,
0,0,0,0,0,0,0,0,11,7,28,30,31,12,51,0,2,0,2,0,11,30,31,12,28,31,12,15,12,28,31,
0,0,0,0,0,0,0,0,11,13,28,31,12,60,51,0,0,0,0,0,11,29,29,31,28,30,31,12,31,28,30,
0,8,0,3,5,5,5,5,6,12,28,12,49,20,52,0,0,0,0,0,11,29,29,30,41,27,27,27,27,42,29,
0,0,0,54,37,38,39,12,12,12,28,59,51,0,0,0,0,0,0,0,11,30,29,29,30,30,31,30,29,30,29,
0,0,0,25,27,27,27,27,46,27,42,13,51,0,0,0,0,0,0,0,19,22,21,23,30,29,49,20,21,22,20,
0,0,0,11,59,12,7,13,12,12,12,60,51,0,0,0,0,0,0,0,0,0,0,19,20,22,52,0,0,0,0,
0,8,0,19,22,21,23,12,60,49,20,22,52,0,3,5,16,5,53,0,0,0,0,0,0,0,0,0,0,0,0,
0,0,0,0,0,0,19,20,22,52,0,0,0,0,11,31,32,29,51,0,0,0,0,8,0,0,8,0,0,0,0,
0,0,0,0,0,0,0,0,0,0,0,0,0,0,11,29,40,30,51,0,0,0,0,0,0,0,0,0,0,0,0,
0,0,0,0,0,0,0,0,0,0,0,0,0,0,11,30,31,30,51,0,0,0,0,0,0,0,0,0,0,0,0,
0,0,0,0,0,0,0,0,0,0,0,0,0,0,19,20,21,22,52,0,0,0,0,0,0,0,0,0,0,0,0,
0,0,0,0,0,0,0,0,0,0,0,0,0,0,0,0,0,0,0,0,0,0,0,0,0,0,0,0,0,0,0
</data>
 </layer>
</map>
