<?xml version="1.0" encoding="UTF-8"?>
<map version="1.10" tiledversion="1.11.2" orientation="orthogonal" renderorder="right-down" width="31" height="21" tilewidth="24" tileheight="24" infinite="0" backgroundcolor="#44668b" nextlayerid="4" nextobjectid="1">
 <editorsettings>
  <chunksize width="24" height="24"/>
  <export format="json"/>
 </editorsettings>
 <tileset firstgid="1" name="t2" tilewidth="24" tileheight="24" tilecount="64" columns="8">
  <image source="tileset1.png" width="192" height="192"/>
 </tileset>
 <layer id="1" name="base" width="31" height="21">
  <data encoding="csv">
0,0,0,3,5,5,5,5,53,0,3,5,5,5,53,0,0,11,12,51,0,0,0,0,0,0,0,11,12,12,12,
0,0,0,11,12,12,12,12,17,18,54,12,12,12,51,0,0,19,20,52,0,0,0,0,0,0,0,11,12,12,12,
0,0,0,11,12,12,12,12,26,26,26,12,12,12,51,0,0,0,0,0,0,0,0,0,0,0,0,11,12,12,12,
0,0,0,11,12,12,12,12,51,0,11,12,12,12,51,0,0,0,0,0,3,5,5,5,5,5,5,6,12,12,12,
0,18,18,54,12,12,12,12,50,5,6,12,12,12,51,0,0,0,0,0,11,12,12,12,12,12,12,12,12,12,12,
0,25,26,27,12,12,12,12,12,12,12,12,12,12,51,0,0,0,0,0,11,12,12,12,12,12,12,12,12,12,12,
0,2,0,11,12,12,12,12,12,12,12,12,12,12,51,0,0,0,0,0,11,12,12,12,12,12,12,12,12,12,12,
0,0,0,19,20,21,20,22,23,12,12,12,12,12,17,18,18,18,18,18,54,12,12,12,12,12,12,12,12,12,12,
0,0,0,0,0,0,0,0,11,12,12,12,12,12,26,26,26,26,26,26,26,12,12,12,12,12,12,12,12,12,12,
0,0,0,0,0,0,0,0,11,12,12,12,12,12,51,0,2,0,2,0,11,12,12,12,12,12,12,12,12,12,12,
0,0,0,0,0,0,0,0,11,12,12,12,12,12,51,0,0,0,0,0,11,12,12,12,12,12,12,12,12,12,12,
0,8,0,3,5,5,5,5,6,12,12,12,49,20,52,0,0,0,0,0,11,12,12,12,12,12,12,12,12,12,12,
0,0,0,54,12,12,12,12,12,12,12,12,51,0,0,0,0,0,0,0,11,12,12,12,12,12,12,12,12,12,12,
0,0,0,25,12,12,12,12,12,12,12,12,51,0,0,0,0,0,0,0,19,22,21,23,12,12,49,20,21,22,20,
0,0,0,11,12,12,12,12,12,12,12,12,51,0,0,0,0,0,0,0,0,0,0,19,20,22,52,0,0,0,0,
0,8,0,19,22,21,23,12,12,49,20,22,52,0,3,5,5,5,53,0,0,0,0,0,0,0,0,0,0,0,0,
0,0,0,0,0,0,19,20,22,52,0,0,0,0,11,12,12,12,51,0,0,0,0,8,0,0,8,0,0,0,0,
0,0,0,0,0,0,0,0,0,0,0,0,0,0,11,12,12,12,51,0,0,0,0,0,0,0,0,0,0,0,0,
0,0,0,0,0,0,0,0,0,0,0,0,0,0,11,12,12,12,51,0,0,0,0,0,0,0,0,0,0,0,0,
0,0,0,0,0,0,0,0,0,0,0,0,0,0,19,20,21,22,52,0,0,0,0,0,0,0,0,0,0,0,0,
0,0,0,0,0,0,0,0,0,0,0,0,0,0,0,0,0,0,0,0,0,0,0,0,0,0,0,0,0,0,0
</data>
 </layer>
 <layer id="3" name="Tile Layer 1" width="31" height="21" visible="0">
  <data encoding="csv">
0,0,0,0,0,0,0,0,0,0,0,0,0,0,0,0,0,0,59,0,0,0,0,0,0,0,0,0,37,37,37,
0,0,0,0,0,7,13,0,0,0,0,31,30,30,0,0,0,0,0,0,0,0,16,0,0,0,0,0,39,38,37,
0,0,0,0,35,36,33,27,0,0,0,27,34,29,0,0,0,0,0,0,0,0,24,0,0,0,0,0,59,0,39,
0,0,0,0,43,44,28,0,0,0,0,0,28,29,0,0,0,0,0,0,0,0,32,0,0,0,0,0,15,7,0,
0,0,0,0,60,0,28,0,0,0,0,0,28,30,0,0,0,0,0,0,0,0,24,59,0,0,14,15,14,15,0,
0,0,0,0,27,27,42,59,7,0,0,0,28,31,0,0,0,0,0,0,0,60,40,35,36,0,59,14,0,0,0,
0,0,0,0,37,38,39,7,59,7,35,36,28,0,0,0,0,0,0,0,0,0,0,43,44,7,0,0,0,0,0,
0,0,0,0,0,0,0,0,0,0,43,44,28,0,0,0,0,0,0,0,0,59,7,59,60,0,59,0,0,0,0,
0,0,0,0,0,0,0,0,0,0,33,27,27,27,0,0,0,0,0,0,0,27,27,27,34,45,45,45,45,33,46,
0,0,0,0,0,0,0,0,0,7,28,30,31,0,0,0,0,0,0,0,0,30,31,0,28,31,0,15,0,28,31,
0,0,0,0,0,0,0,0,0,13,28,31,0,60,0,0,0,0,0,0,0,29,29,31,28,30,31,0,31,28,30,
0,0,0,0,0,0,0,0,0,0,28,0,0,0,0,0,0,0,0,0,0,29,29,30,41,27,27,27,27,42,29,
0,0,0,0,37,38,39,0,0,0,28,59,0,0,0,0,0,0,0,0,0,30,29,29,30,30,31,30,29,30,29,
0,0,0,0,27,27,27,27,46,27,42,13,0,0,0,0,0,0,0,0,0,0,0,0,30,29,0,0,0,0,0,
0,0,0,0,59,0,7,13,0,0,0,60,0,0,0,0,0,0,0,0,0,0,0,0,0,0,0,0,0,0,0,
0,0,0,0,0,0,0,0,60,0,0,0,0,0,0,0,16,0,0,0,0,0,0,0,0,0,0,0,0,0,0,
0,0,0,0,0,0,0,0,0,0,0,0,0,0,0,31,32,29,0,0,0,0,0,0,0,0,0,0,0,0,0,
0,0,0,0,0,0,0,0,0,0,0,0,0,0,0,29,40,30,0,0,0,0,0,0,0,0,0,0,0,0,0,
0,0,0,0,0,0,0,0,0,0,0,0,0,0,0,30,31,30,0,0,0,0,0,0,0,0,0,0,0,0,0,
0,0,0,0,0,0,0,0,0,0,0,0,0,0,0,0,0,0,0,0,0,0,0,0,0,0,0,0,0,0,0,
0,0,0,0,0,0,0,0,0,0,0,0,0,0,0,0,0,0,0,0,0,0,0,0,0,0,0,0,0,0,0
</data>
 </layer>
</map>
