<?xml version="1.0" encoding="UTF-8"?>
<map version="1.10" tiledversion="1.11.2" orientation="orthogonal" renderorder="right-down" width="31" height="21" tilewidth="24" tileheight="24" infinite="0" backgroundcolor="#44668b" nextlayerid="4" nextobjectid="1">
 <editorsettings>
  <chunksize width="24" height="24"/>
  <export format="json"/>
 </editorsettings>
 <tileset firstgid="1" name="t2" tilewidth="24" tileheight="24" tilecount="64" columns="8">
  <image source="tileset1.png" width="192" height="192"/>
 </tileset>
 <layer id="1" name="base" width="31" height="21">
  <data encoding="csv">
0,0,0,0,0,0,0,0,0,0,0,0,0,0,0,0,0,0,0,0,0,0,0,0,0,0,0,0,0,0,0,
0,0,0,0,0,0,0,0,0,0,0,0,0,0,0,0,3,5,5,5,53,0,0,0,0,0,0,0,0,0,0,
0,0,0,0,0,0,0,0,0,0,0,0,0,0,0,0,11,12,12,12,17,18,18,0,0,0,0,0,0,0,0,
0,0,3,5,53,0,3,5,53,0,3,5,53,0,18,18,54,12,12,12,26,26,26,0,0,0,0,0,0,0,0,
0,0,11,12,51,0,11,12,51,0,11,12,51,0,26,26,26,12,12,12,51,0,2,0,0,0,0,0,0,0,0,
0,0,19,20,52,0,19,21,52,0,19,22,52,0,2,0,19,21,20,20,52,0,0,0,0,0,0,0,0,0,0,
0,0,0,0,0,0,0,0,0,0,0,0,0,0,0,0,0,0,0,0,0,0,0,0,0,0,0,0,0,0,0,
0,0,0,0,0,0,0,0,0,0,0,0,0,0,0,0,0,0,0,0,0,0,0,0,0,0,0,0,0,0,0,
0,3,5,5,5,5,5,53,0,0,3,5,5,5,5,5,53,0,0,3,5,5,5,5,5,53,0,0,0,0,0,
0,11,12,12,12,12,12,51,0,0,11,12,12,12,12,12,51,0,0,11,12,12,12,12,12,51,0,0,0,0,0,
0,11,12,49,20,23,12,51,0,0,11,12,49,21,23,12,51,0,0,11,12,49,22,23,12,51,0,0,0,0,0,
0,11,12,51,0,11,12,51,0,0,11,12,51,0,11,12,51,0,0,11,12,51,0,11,12,51,0,0,0,0,0,
0,11,12,50,5,6,12,51,0,0,11,12,50,5,6,12,51,0,0,11,12,50,5,6,12,51,0,0,0,0,0,
0,11,12,12,12,12,12,51,0,0,11,12,12,12,12,12,51,0,0,11,12,12,12,12,12,51,0,0,0,0,0,
0,19,20,21,22,21,20,52,0,0,19,20,21,22,21,20,52,0,0,19,20,21,22,21,20,52,0,0,0,0,0,
0,0,0,0,0,0,0,0,0,0,0,0,0,0,0,0,0,0,0,0,0,0,0,0,0,0,0,0,0,0,0,
0,0,0,0,3,5,53,0,0,0,3,5,53,0,0,0,0,0,3,5,53,0,0,0,3,5,53,0,0,0,0,
0,0,0,0,54,12,51,0,18,18,54,12,51,0,0,0,18,18,54,12,51,0,0,0,54,12,51,0,0,0,0,
0,0,0,0,26,12,17,0,25,26,26,12,17,18,18,0,26,26,26,12,17,18,18,0,25,12,17,0,0,0,0,
0,0,0,0,11,12,26,0,2,0,11,12,26,26,25,0,2,0,11,12,26,26,26,0,11,12,25,0,0,0,0,
0,0,0,0,19,21,52,0,0,0,19,21,52,0,2,0,0,0,19,21,52,0,2,0,19,21,52,0,0,0,0
</data>
 </layer>
</map>
